X: 211
T: Miss Flora McDonald's Reel
R: reel
B: Robert Bremner "A Collection of Scots Reels or Country Dances" p.21 #1
S: http://imslp.org/wiki/A_Collection_of_Scots_Reels_or_Country_Dances_(Bremner,_Robert)
Z: 2013 John Chambers <jc:trillian.mit.edu>
N: The first half of the last measure should probably have E(m) for the bass.
M: C|
L: 1/8
K: Edor
% - - - - - - - - - - - - - - - - - - - - - - - - -
V: 1
F |\
E2EF BFEF | E2EF dFDF |\
E2EF EFGA | (B/c/d) AG FDD :|
|: F |\
Ee-ed eEEF | Ee-ec dDDF |\
Eeed BcdB | (e/f/g) Tfe dDD :|
% - - - - - - - - - - - - - - - - - - - - - - - - -
V: 2 clef=bass middle=d
z |\
e2e2 e2e2 | e2e2 d2d2 |\
e2e2 e2e2 | d2d2 d2d :|\
|: z |
e2e2 e2e2 | e2e2 d2d2 |\
e2e2 e2e2 | d2d2 d2d :|
% - - - - - - - - - - - - - - - - - - - - - - - - -

%%sep 1 1 500
%%sep 1 1 500
